assets/gmail/mono.svg

<svg viewBox="0 0 24 24" xmlns="http://www.w3.org/2000/svg"><path d="m24 5.457v13.909c0 .904-.732 1.636-1.636 1.636h-3.819v-9.272l-6.545 4.91-6.545-4.91v9.273h-3.819a1.636 1.636 0 0 1 -1.636-1.637v-13.909c0-2.023 2.309-3.178 3.927-1.964l1.528 1.147 6.545 4.908 6.545-4.91 1.528-1.145c1.617-1.213 3.927-.059 3.927 1.964z"/></svg>

<svg xmlns="http://www.w3.org/2000/svg" viewBox="0 0 24 24"><path d="M24 5.457v13.909c0 .904-.732 1.636-1.636 1.636h-3.819V11.73L12 16.64l-6.545-4.91v9.273H1.636A1.636 1.636 0 0 1 0 19.366V5.457c0-2.023 2.309-3.178 3.927-1.964L5.455 4.64 12 9.548l6.545-4.91 1.528-1.145C21.69 2.28 24 3.434 24 5.457"/></svg>
